!!!COM: Ernest Chausson
!!!CNT: Francais
!!!TXO: Francais
!!!OTL: "Lassitude"
!!!LYR: Maeterlinck
!!!OPR: Serres chaude
!!!OPS: Op. 24
!!!ONM: No. 3
!!!ENC: Emily Thomas
!!!YOR: CD Sheet Music French Art Songs, The Ultimate Collection
!!!YOR: CD Sheet Music, LLC 2003
!!!ODT: 1893/
!!NB: Vocal melody and text encoded.
**kern	**silbe
=1	=1
*clefG2	*
*k[f#c#g#]	*
*M3/2	*
*MM[Calme]	*
8r	.
{4f#	{Ils
8f#	ne
4.f#	sa-
8f#	-vent
2f#	plus
=2	=2
*M2/2	*
4gn	ou^
8gn	se
8gn	po-
2b}	-ser}
=3	=3
*M3/2	*
8r	.
{4a	{ces
8f#	bai-
4f#	-sers,
8r	.
8gn	Ces
4g#	le\-
8gn	-vres
16gn	sur
16gn	des
=4	=4
*M2/2	*
4.a	yeux
8a	a-
8a	-veu-
[8a	-gles
12a]	|
12a	et
12cc#	gla-
=5	=5
*M3/2	*
[2cc#	-ce/s;
4cc#_	|
8cc#]}	|}
8r	.
4r	.
{8cc#	{De/-
8cc#	-sor-
=6	=6
*M2/2	*
4dd	-mais
8b	en-
8b	-dor-
4g#	-mis
8a	en
8b	leur
=7	=7
*M3/2	*
4cc#	son-
8a	-ge
8a	su-
8g#	-per-
[8f#	-be,
8f#]}	|}
8r	.
4r	.
{8f#	{Ils
8f#	re-
=8	=8
*M2/2	*
4a	-gar-
8a	-dent
16r	.
16a	re^-
2a	-veurs
=9	=9
8r	.
8g#	com-
8g#	-me
8g#	des
4.b	chiens
8g#	dans
=10	=10
4.gn	l'her-
[8gn	-be,
8gn]}	|}
8r	.
4r	.
=11	=11
*M3/2	*
8r	.
{8f#	{La
4.f#	fou-
8f#	-le
12f#	des
12f#	bre-
12f#	-bis
4b	gri-
4f#}	-ses}
=12	=12
8r	.
{8f#	{a\
8f#	l'ho-
8f#	-ri-
4gn	-zon
8r	.
8gn	Brou-
8g#	-ter
8g#	le
8g#	clair
8g#	de
=13	=13
*M2/2	*
2.a	lune
4a	e/-
=14	=14
[2b	-pars
8b]	|
8gn	sur
8gn	le
8gn	ga-
=15	=15
*M3/2	*
2f#}	-zon.}
2r	.
2r	.
=16	=16
2r	.
8r	.
{4a#	{Aux
8a#	ca-
4an	-res-
8g#	-ses
8f#	du
=17	=17
2a#	ciel,
4.cc#	va-
[8g#	-gue
8g#]	|
8e#	com-
8d#	-me
8c#	leur
=18	=18
*M2/2	*
2g#}	vie,}
8r	.
{8dd	{In-
8dd	-dif-
8dd	-fe/-
=19	=19
2cc#	-rent
8cc#	et
8cc#	sans
8dd#	u-
8ee	-ne
=20	=20
4ee	flam-
8ddn	-me
8cc#	d'en-
4.ee	-vi-
8b#}	-e}
=21	=21
8r	.
{4cc#	{Pour
8cc#	ces
4b#	ro-
8b#	-ses
8g#	de
=22	=22
[2bn	joie
8b]}	|}
8r	.
{4b	{e/-
=23	=23
4.a#	clo-
[8a#	-ses
8a#]	|
4a#	sous
8cc#	leurs
=24	=24
[2g#	pas
4g#_	|
8g#]}	|}
8r	.
=25	=25
8r	.
{4ff#	{Et
8ff#	ce
8ee	long
4dd	cal-
8dd	-me
=26	=26
*M3/2	*
1cc#	vert
4dd	qu'ils
8dd	ne
8dd	com-
=27	=27
*M2/2	*
8b	-pren-
8b	-nent
[2gn	pas.
8gn]}	|}
8r	.
==	==
*-	*-
